; generated by PrusaSlicer 2.5.0 on 2024-12-06 at 22:27:16 UTC

; 

; external perimeters extrusion width = 0.90mm
; perimeters extrusion width = 0.90mm
; infill extrusion width = 0.90mm
; solid infill extrusion width = 0.90mm
; top infill extrusion width = 0.80mm

M107
;TYPE:Custom
G28 ; home all axes
M190 S90
M109 S230
;M190 S90 ; wait for bed temp
;M109 S230 ; wait for extruder temp
G1 X0 Y30 Z0.2 F3000 ; get ready to prime
G92 E0 ; reset extrusion distance
G1 X100 E20 F750 ; prime nozzle
G92 E0 ; reset extrusion distance
;
;G28 ; home all axes
;G1 Z5 F5000 ; lift nozzle
;
;G21        ;metric values
;G90        ;absolute positioning
;M82        ;set extruder to absolute mode
;M107       ;start with the fan off
;G28 ; Auto Home All AXIS
;G29 ; Auto Bed Levelling
;G1 Z15.0 F180 ;move the platform down 15mm
;G92 E0                  ;zero the extruded length
;G1 F200 E3              ;extrude 3mm of feed stock
;G92 E0                  ;zero the extruded length again
;G1 F180
;M117 Printing...
G21 ; set units to millimeters
G90 ; use absolute coordinates
M82 ; use absolute distances for extrusion
G92 E0
; Filament gcode
M107
;LAYER_CHANGE
;Z:0.5
;HEIGHT:0.5
G1 Z.5 F10800
G1 E-1 F2400
G92 E0
G1 X52.664 Y73.686 F10800
G1 E1 F2400
M204 S1000
;TYPE:Skirt/Brim
;WIDTH:0.9
G1 F1200
G1 X54.582 Y72.691 E1.35601
G1 X55.915 Y72.219 E1.58908
G1 X57.539 Y71.859 E1.86316
G1 X59.401 Y71.708 E2.171
G1 X160.632 Y71.708 E18.85213
G1 X161.65 Y71.758 E19.02005
G1 X162.913 Y71.936 E19.2302
G1 X164.152 Y72.239 E19.44036
G1 X165.225 Y72.613 E19.62759
G1 X166.509 Y73.206 E19.86066
G1 X167.486 Y73.784 E20.04788
G1 X168.923 Y74.873 E20.34485
G1 X169.745 Y75.657 E20.53209
G1 X170.579 Y76.621 E20.74224
G1 X171.314 Y77.664 E20.9524
G1 X171.941 Y78.775 E21.16257
G1 X172.363 Y79.71 E21.33168
G1 X172.781 Y80.915 E21.54184
G1 X173.077 Y82.156 E21.75199
G1 X173.244 Y83.387 E21.95672
G1 X173.293 Y135.562 E30.55437
G1 X173.242 Y136.65 E30.73374
G1 X173.014 Y138.157 E30.98494
G1 X172.643 Y139.522 E31.218
G1 X171.93 Y141.235 E31.52378
G1 X171.216 Y142.486 E31.76122
G1 X170.38 Y143.627 E31.9943
G1 X169.522 Y144.571 E32.20446
G1 X168.574 Y145.424 E32.41462
G1 X167.336 Y146.314 E32.66581
G1 X165.418 Y147.309 E33.02182
G1 X164.085 Y147.781 E33.25489
G1 X162.461 Y148.141 E33.52897
G1 X160.599 Y148.292 E33.83681
G1 X59.243 Y148.289 E50.53849
G1 X57.964 Y148.199 E50.74981
G1 X55.982 Y147.799 E51.08294
G1 X54.646 Y147.337 E51.31601
G1 X53.272 Y146.675 E51.5672
G1 X52.078 Y145.918 E51.80026
G1 X50.529 Y144.619 E52.1334
G1 X49.576 Y143.574 E52.36646
G1 X48.686 Y142.336 E52.61766
G1 X47.999 Y141.1 E52.85072
G1 X47.219 Y139.085 E53.20674
G1 X46.88 Y137.599 E53.45792
G1 X46.711 Y135.745 E53.7647
G1 X46.748 Y83.489 E62.37551
G1 X46.936 Y82.087 E62.6086
G1 X47.239 Y80.848 E62.81874
G1 X47.76 Y79.416 E63.06994
G1 X48.394 Y78.152 E63.303
G1 X49.082 Y77.078 E63.51314
G1 X50.381 Y75.529 E63.84627
G1 X51.426 Y74.576 E64.07935
G1 X52.567 Y73.756 E64.31075
;WIPE_START
G1 F8640
G1 X54.582 Y72.691 E63.70927
G1 X55.827 Y72.25 E63.36075
;WIPE_END
G1 E63.31075 F2400
G92 E0
G1 X54.359 Y76.679 F10800
G1 E1 F2400
G1 F1200
G1 X55.174 Y76.2 E1.15585
G1 X56.039 Y75.804 E1.31251
G1 X57.021 Y75.475 E1.48333
G1 X57.999 Y75.261 E1.6482
G1 X58.73 Y75.172 E1.76962
G1 X59.459 Y75.14 E1.88979
G1 X160.574 Y75.141 E18.55182
G1 X161.473 Y75.193 E18.70021
G1 X162.402 Y75.336 E18.85508
G1 X163.268 Y75.559 E19.0025
G1 X164.1 Y75.86 E19.14824
G1 X164.939 Y76.26 E19.30146
G1 X165.704 Y76.721 E19.44854
G1 X166.45 Y77.275 E19.60171
G1 X167.103 Y77.867 E19.747
G1 X167.725 Y78.551 E19.89929
G1 X168.285 Y79.303 E20.05385
G1 X168.892 Y80.354 E20.25384
G1 X169.249 Y81.176 E20.40153
G1 X169.537 Y82.064 E20.55525
G1 X169.728 Y82.935 E20.70228
G1 X169.838 Y83.854 E20.85472
G1 X169.86 Y84.464 E20.95541
G1 X169.86 Y135.548 E29.37309
G1 X169.825 Y136.307 E29.49832
G1 X169.674 Y137.344 E29.671
G1 X169.408 Y138.375 E29.84646
G1 X169.143 Y139.093 E29.97251
G1 X168.807 Y139.81 E30.10296
G1 X168.295 Y140.681 E30.26948
G1 X167.693 Y141.488 E30.43546
G1 X166.992 Y142.241 E30.60494
G1 X166.343 Y142.809 E30.74698
G1 X165.641 Y143.321 E30.89023
G1 X164.826 Y143.8 E31.04602
G1 X163.961 Y144.196 E31.20269
G1 X162.979 Y144.525 E31.3735
G1 X162.001 Y144.739 E31.53838
G1 X161.27 Y144.828 E31.65979
G1 X160.541 Y144.86 E31.77996
G1 X59.402 Y144.859 E48.44601
G1 X58.427 Y144.798 E48.60692
G1 X57.656 Y144.674 E48.73557
G1 X56.885 Y144.487 E48.86634
G1 X55.868 Y144.126 E49.04418
G1 X54.91 Y143.657 E49.22002
G1 X54.229 Y143.234 E49.35196
G1 X53.587 Y142.756 E49.48398
G1 X52.832 Y142.067 E49.65239
G1 X52.147 Y141.291 E49.82296
G1 X51.628 Y140.559 E49.97087
G1 X51.203 Y139.831 E50.10966
G1 X50.805 Y138.962 E50.26716
G1 X50.475 Y137.979 E50.43816
G1 X50.261 Y137.001 E50.60308
G1 X50.175 Y136.3 E50.71947
G1 X50.141 Y135.576 E50.83892
G1 X50.143 Y84.347 E59.2806
G1 X50.186 Y83.574 E59.40807
G1 X50.301 Y82.783 E59.53988
G1 X50.57 Y81.698 E59.724
G1 X50.901 Y80.804 E59.88111
G1 X51.292 Y80.006 E60.02761
G1 X51.729 Y79.285 E60.16649
G1 X52.357 Y78.452 E60.33834
G1 X53.065 Y77.704 E60.50811
G1 X53.682 Y77.171 E60.6425
G1 X54.262 Y76.75 E60.76054
G1 X54.728 Y77.389 F10800
G1 F1200
G1 X55.523 Y76.912 E60.91333
G1 X56.349 Y76.534 E61.06293
G1 X57.251 Y76.234 E61.21963
G1 X58.114 Y76.046 E61.36519
G1 X58.782 Y75.963 E61.47599
G1 X59.468 Y75.933 E61.58919
G1 X160.562 Y75.933 E78.24779
G1 X161.407 Y75.983 E78.38722
G1 X162.26 Y76.116 E78.5295
G1 X163.049 Y76.321 E78.66394
G1 X163.81 Y76.598 E78.79725
G1 X164.579 Y76.967 E78.93778
G1 X165.277 Y77.388 E79.07214
G1 X165.96 Y77.898 E79.21261
G1 X166.555 Y78.44 E79.3453
G1 X167.124 Y79.068 E79.48487
G1 X167.634 Y79.757 E79.62607
G1 X168.175 Y80.693 E79.80423
G1 X168.502 Y81.441 E79.93883
G1 X168.767 Y82.253 E80.07955
G1 X168.949 Y83.085 E80.21997
G1 X169.048 Y83.929 E80.36
G1 X169.067 Y84.471 E80.44931
G1 X169.067 Y135.539 E88.86438
G1 X169.034 Y136.25 E88.98174
G1 X168.893 Y137.207 E89.14113
G1 X168.657 Y138.119 E89.29639
G1 X168.405 Y138.802 E89.41628
G1 X168.098 Y139.455 E89.53519
G1 X167.623 Y140.258 E89.68898
G1 X167.072 Y140.995 E89.84068
G1 X166.428 Y141.685 E89.99611
G1 X165.836 Y142.199 E90.12534
G1 X165.221 Y142.648 E90.25084
G1 X164.477 Y143.088 E90.39329
G1 X163.651 Y143.466 E90.54289
G1 X162.749 Y143.766 E90.69959
G1 X161.886 Y143.954 E90.84515
G1 X161.218 Y144.037 E90.95595
G1 X160.532 Y144.067 E91.06915
G1 X59.414 Y144.066 E107.73178
G1 X58.533 Y144.012 E107.87709
G1 X57.798 Y143.894 E107.99981
G1 X57.093 Y143.722 E108.11942
G1 X56.195 Y143.403 E108.27647
G1 X55.309 Y142.972 E108.4388
G1 X54.689 Y142.588 E108.55891
G1 X54.077 Y142.132 E108.68471
G1 X53.383 Y141.498 E108.83967
G1 X52.757 Y140.784 E108.99613
G1 X52.303 Y140.143 E109.12562
G1 X51.915 Y139.482 E109.25179
G1 X51.534 Y138.652 E109.40231
G1 X51.234 Y137.749 E109.55915
G1 X51.046 Y136.886 E109.7047
G1 X50.963 Y136.218 E109.81552
G1 X50.933 Y135.549 E109.9259
G1 X50.935 Y84.379 E118.35795
G1 X50.973 Y83.67 E118.47489
G1 X51.083 Y82.916 E118.60037
G1 X51.333 Y81.913 E118.77084
G1 X51.637 Y81.1 E118.91371
G1 X51.981 Y80.4 E119.04236
G1 X52.375 Y79.744 E119.16846
G1 X52.95 Y78.979 E119.32608
G1 X53.599 Y78.289 E119.48222
G1 X54.163 Y77.801 E119.60518
G1 X54.631 Y77.459 E119.70061
G1 X55.099 Y78.097 F10800
G1 F1200
G1 X55.873 Y77.624 E119.85013
G1 X56.659 Y77.264 E119.99249
G1 X57.479 Y76.993 E120.13489
G1 X58.229 Y76.83 E120.26133
G1 X58.863 Y76.752 E120.36654
G1 X59.476 Y76.726 E120.46772
G1 X160.551 Y76.726 E137.1231
G1 X161.306 Y76.77 E137.24776
G1 X162.082 Y76.888 E137.37711
G1 X162.798 Y77.073 E137.49899
G1 X163.487 Y77.323 E137.61971
G1 X164.186 Y77.655 E137.74725
G1 X164.849 Y78.056 E137.87496
G1 X165.468 Y78.521 E138.00245
G1 X166.006 Y79.012 E138.12255
G1 X166.522 Y79.583 E138.2494
G1 X166.982 Y80.208 E138.37731
G1 X167.458 Y81.032 E138.53407
G1 X167.755 Y81.708 E138.65567
G1 X167.997 Y82.444 E138.78345
G1 X168.165 Y83.199 E138.91087
G1 X168.257 Y83.974 E139.03943
G1 X168.274 Y84.478 E139.12252
G1 X168.274 Y135.529 E147.53489
G1 X168.243 Y136.193 E147.64441
G1 X168.12 Y137.031 E147.78391
G1 X167.906 Y137.866 E147.92595
G1 X167.68 Y138.48 E148.03384
G1 X167.389 Y139.1 E148.14664
G1 X166.953 Y139.835 E148.28744
G1 X166.452 Y140.501 E148.4248
G1 X165.864 Y141.127 E148.56631
G1 X165.354 Y141.57 E148.67767
G1 X164.799 Y141.977 E148.79107
G1 X164.127 Y142.376 E148.91989
G1 X163.341 Y142.736 E149.06224
G1 X162.521 Y143.007 E149.20465
G1 X161.771 Y143.17 E149.33109
G1 X161.137 Y143.248 E149.4363
G1 X160.524 Y143.274 E149.53748
G1 X59.425 Y143.273 E166.19682
G1 X58.638 Y143.226 E166.32676
G1 X57.97 Y143.12 E166.4382
G1 X57.301 Y142.957 E166.55162
G1 X56.482 Y142.664 E166.69495
G1 X55.709 Y142.287 E166.83668
G1 X55.121 Y141.924 E166.95057
G1 X54.569 Y141.51 E167.06436
G1 X53.936 Y140.929 E167.20589
G1 X53.368 Y140.278 E167.34825
G1 X52.977 Y139.725 E167.45982
G1 X52.627 Y139.133 E167.57325
G1 X52.264 Y138.342 E167.7166
G1 X51.993 Y137.521 E167.8591
G1 X51.83 Y136.771 E167.98553
G1 X51.752 Y136.137 E168.09075
G1 X51.726 Y135.524 E168.19193
G1 X51.727 Y84.409 E176.61477
G1 X51.761 Y83.765 E176.72102
G1 X51.864 Y83.05 E176.84002
G1 X52.096 Y82.129 E176.99661
G1 X52.371 Y81.398 E177.12524
G1 X52.669 Y80.792 E177.23659
G1 X53.023 Y80.201 E177.35001
G1 X53.544 Y79.505 E177.49336
G1 X54.135 Y78.874 E177.63581
G1 X54.646 Y78.43 E177.74738
G1 X55.002 Y78.168 E177.82022
G1 X55.47 Y78.808 F10800
G1 F1200
G1 X55.652 Y78.675 E177.85746
G1 X56.258 Y78.317 E177.9734
G1 X56.93 Y78.009 E178.09515
G1 X57.67 Y77.763 E178.22374
G1 X58.346 Y77.614 E178.3378
G1 X58.914 Y77.543 E178.43208
G1 X59.485 Y77.518 E178.52625
G1 X160.54 Y77.519 E195.17837
G1 X161.205 Y77.556 E195.28819
G1 X161.941 Y77.669 E195.41091
G1 X162.579 Y77.835 E195.51948
G1 X163.197 Y78.06 E195.62784
G1 X163.825 Y78.361 E195.74261
G1 X164.42 Y78.723 E195.85729
G1 X164.975 Y79.141 E195.97187
G1 X165.456 Y79.582 E196.07938
G1 X165.918 Y80.098 E196.19352
G1 X166.33 Y80.659 E196.30822
G1 X166.741 Y81.372 E196.44375
G1 X167.022 Y82.009 E196.55846
G1 X167.237 Y82.67 E196.67315
G1 X167.386 Y83.349 E196.78768
G1 X167.465 Y84.019 E196.89874
G1 X167.482 Y84.485 E196.97567
G1 X167.482 Y135.52 E205.38529
G1 X167.453 Y136.135 E205.48678
G1 X167.339 Y136.893 E205.61303
G1 X167.155 Y137.611 E205.73528
G1 X166.942 Y138.19 E205.83686
G1 X166.681 Y138.743 E205.93765
G1 X166.284 Y139.41 E206.06552
G1 X165.833 Y140.005 E206.18862
G1 X165.329 Y140.542 E206.30986
G1 X164.847 Y140.96 E206.4151
G1 X164.348 Y141.325 E206.51701
G1 X163.742 Y141.683 E206.63295
G1 X163.07 Y141.991 E206.75469
G1 X162.33 Y142.237 E206.88329
G1 X161.654 Y142.386 E206.99734
G1 X161.086 Y142.457 E207.09162
G1 X160.515 Y142.482 E207.18579
G1 X59.459 Y142.481 E223.83816
G1 X58.742 Y142.44 E223.95641
G1 X58.111 Y142.34 E224.06168
G1 X57.511 Y142.192 E224.16359
G1 X56.808 Y141.941 E224.28653
G1 X56.108 Y141.602 E224.41464
G1 X55.554 Y141.259 E224.52205
G1 X55.061 Y140.888 E224.62378
G1 X54.517 Y140.39 E224.74533
G1 X54.003 Y139.803 E224.87387
G1 X53.634 Y139.282 E224.97913
G1 X53.321 Y138.749 E225.08104
G1 X53.009 Y138.071 E225.20398
G1 X52.763 Y137.33 E225.33263
G1 X52.614 Y136.654 E225.44668
G1 X52.543 Y136.086 E225.54096
G1 X52.518 Y135.515 E225.63514
G1 X52.52 Y84.42 E234.05477
G1 X52.551 Y83.825 E234.15291
G1 X52.638 Y83.222 E234.25331
G1 X52.847 Y82.385 E234.39551
G1 X53.092 Y81.73 E234.51066
G1 X53.373 Y81.157 E234.6159
G1 X53.692 Y80.627 E234.7178
G1 X54.138 Y80.029 E234.84075
G1 X54.671 Y79.458 E234.96935
G1 X55.153 Y79.04 E235.07461
G1 X55.373 Y78.879 E235.1195
G1 X55.841 Y79.519 F10800
G1 F1200
G1 X56.103 Y79.327 E235.17315
G1 X56.641 Y79.012 E235.2758
G1 X57.238 Y78.739 E235.38402
G1 X57.862 Y78.532 E235.49233
G1 X58.464 Y78.399 E235.59387
G1 X58.996 Y78.332 E235.68227
G1 X59.493 Y78.311 E235.76424
G1 X160.529 Y78.311 E252.41329
G1 X161.107 Y78.343 E252.50862
G1 X161.764 Y78.442 E252.61814
G1 X162.326 Y78.587 E252.71375
G1 X162.906 Y78.798 E252.81551
G1 X163.462 Y79.066 E252.91718
G1 X163.988 Y79.388 E253.01884
G1 X164.48 Y79.761 E253.12051
G1 X164.903 Y80.151 E253.21543
G1 X165.314 Y80.61 E253.31687
G1 X165.677 Y81.109 E253.41844
G1 X166.025 Y81.713 E253.53337
G1 X166.275 Y82.276 E253.63493
G1 X166.468 Y82.862 E253.7366
G1 X166.601 Y83.464 E253.83823
G1 X166.674 Y84.064 E253.93782
G1 X166.689 Y84.492 E254.00842
G1 X166.689 Y135.51 E262.41524
G1 X166.662 Y136.077 E262.50873
G1 X166.566 Y136.717 E262.61548
G1 X166.403 Y137.36 E262.72471
G1 X166.218 Y137.868 E262.81381
G1 X165.973 Y138.386 E262.90822
G1 X165.615 Y138.984 E263.02302
G1 X165.239 Y139.48 E263.12552
G1 X164.792 Y139.958 E263.23346
G1 X164.365 Y140.331 E263.32683
G1 X163.897 Y140.673 E263.42248
G1 X163.359 Y140.988 E263.52513
G1 X162.762 Y141.261 E263.63335
G1 X162.138 Y141.468 E263.74166
G1 X161.536 Y141.601 E263.8432
G1 X161.004 Y141.668 E263.9316
G1 X160.507 Y141.689 E264.01357
G1 X59.491 Y141.689 E280.65936
G1 X58.844 Y141.654 E280.76602
G1 X58.284 Y141.566 E280.85946
G1 X57.721 Y141.427 E280.95501
G1 X57.097 Y141.203 E281.06433
G1 X56.507 Y140.917 E281.1724
G1 X56.015 Y140.614 E281.26743
G1 X55.553 Y140.267 E281.36268
G1 X55.07 Y139.822 E281.47097
G1 X54.637 Y139.327 E281.57927
G1 X54.308 Y138.865 E281.67273
G1 X54.015 Y138.365 E281.76828
G1 X53.739 Y137.761 E281.8776
G1 X53.532 Y137.138 E281.9859
G1 X53.399 Y136.536 E282.08743
G1 X53.332 Y136.004 E282.17584
G1 X53.311 Y135.507 E282.2578
G1 X53.312 Y84.451 E290.67092
G1 X53.342 Y83.886 E290.76421
G1 X53.42 Y83.357 E290.85235
G1 X53.598 Y82.639 E290.97421
G1 X53.813 Y82.06 E291.07604
G1 X54.062 Y81.55 E291.1695
G1 X54.36 Y81.053 E291.26505
G1 X54.759 Y80.523 E291.37437
G1 X55.207 Y80.042 E291.48266
G1 X55.744 Y79.59 E291.59828
G1 X56.211 Y80.23 F10800
G1 F1200
G1 X56.554 Y79.979 E291.66823
G1 X57.022 Y79.707 E291.75748
G1 X57.511 Y79.484 E291.84599
G1 X58.057 Y79.301 E291.94091
G1 X58.582 Y79.183 E292.02955
G1 X59.078 Y79.121 E292.11189
G1 X59.501 Y79.104 E292.18164
G1 X160.519 Y79.104 E308.82778
G1 X161.011 Y79.13 E308.90896
G1 X161.587 Y79.215 E309.00491
G1 X162.108 Y79.349 E309.09356
G1 X162.613 Y79.535 E309.1822
G1 X163.097 Y79.77 E309.27084
G1 X163.555 Y80.052 E309.35948
G1 X163.983 Y80.379 E309.44824
G1 X164.349 Y80.719 E309.53059
G1 X164.707 Y81.121 E309.61934
G1 X165.022 Y81.556 E309.70787
G1 X165.31 Y82.055 E309.8028
G1 X165.53 Y82.546 E309.89133
G1 X165.699 Y83.056 E309.97997
G1 X165.817 Y83.581 E310.06863
G1 X165.882 Y84.111 E310.15655
G1 X165.896 Y84.5 E310.2207
G1 X165.896 Y135.5 E318.62468
G1 X165.871 Y136.018 E318.71009
G1 X165.792 Y136.544 E318.79774
G1 X165.651 Y137.109 E318.89368
G1 X165.48 Y137.578 E318.97605
G1 X165.266 Y138.026 E319.05782
G1 X164.948 Y138.555 E319.15954
G1 X164.622 Y138.983 E319.24811
G1 X164.254 Y139.376 E319.33675
G1 X163.883 Y139.701 E319.41816
G1 X163.446 Y140.021 E319.50734
G1 X162.978 Y140.293 E319.59659
G1 X162.489 Y140.516 E319.68511
G1 X161.943 Y140.699 E319.78003
G1 X161.418 Y140.817 E319.86867
G1 X160.922 Y140.879 E319.95101
G1 X160.499 Y140.896 E320.02076
G1 X59.501 Y140.896 E336.66367
G1 X58.944 Y140.867 E336.75546
G1 X58.456 Y140.792 E336.83684
G1 X57.931 Y140.663 E336.92602
G1 X57.422 Y140.479 E337.01516
G1 X56.902 Y140.229 E337.11018
G1 X56.476 Y139.969 E337.19243
G1 X56.046 Y139.645 E337.28118
G1 X55.651 Y139.281 E337.36971
G1 X55.269 Y138.849 E337.46464
G1 X54.983 Y138.448 E337.54594
G1 X54.709 Y137.981 E337.63512
G1 X54.484 Y137.489 E337.72426
G1 X54.301 Y136.943 E337.81917
G1 X54.183 Y136.418 E337.9078
G1 X54.121 Y135.922 E337.99014
G1 X54.104 Y135.499 E338.05989
G1 X54.104 Y84.48 E346.46699
G1 X54.129 Y83.982 E346.54924
G1 X54.201 Y83.491 E346.63101
G1 X54.349 Y82.891 E346.73274
G1 X54.535 Y82.387 E346.82131
G1 X54.751 Y81.943 E346.90272
G1 X55.029 Y81.479 E346.99189
G1 X55.354 Y81.046 E347.08104
G1 X55.746 Y80.624 E347.17595
G1 X56.115 Y80.301 E347.25671
;WIPE_START
G1 F8640
G1 X56.554 Y79.979 E347.11304
G1 X57.022 Y79.707 E346.97011
G1 X57.511 Y79.484 E346.82836
G1 X58.057 Y79.301 E346.67634
G1 X58.582 Y79.183 E346.53439
G1 X59.078 Y79.121 E346.40254
G1 X59.44 Y79.106 E346.30671
;WIPE_END
G1 E346.25671 F2400
G92 E0
